libs/ui/packages/crypto-icons/src/svg/PASL.svg

<svg width="24" height="24" viewBox="0 0 24 24" fill="none">
<path fill-rule="evenodd" clip-rule="evenodd" d="M11.31 15.117C11.3566 15.0976 11.4066 15.0877 11.457 15.0877C11.5075 15.0878 11.5575 15.0978 11.604 15.1173C11.6506 15.1367 11.6929 15.1652 11.7284 15.2011C11.7639 15.2369 11.792 15.2795 11.811 15.3262C11.8498 15.4205 11.8498 15.5264 11.8108 15.6207C11.7719 15.715 11.6973 15.79 11.6032 15.8295L9.04872 16.89L8.70972 18.75H6.95172L7.14447 17.6805L6.10797 18.1102C6.06135 18.1296 6.01137 18.1395 5.9609 18.1394C5.91043 18.1394 5.86047 18.1293 5.8139 18.1099C5.76733 18.0904 5.72507 18.062 5.68955 18.0261C5.65404 17.9903 5.62597 17.9477 5.60697 17.901C5.56836 17.8067 5.56853 17.7011 5.60744 17.607C5.64634 17.5129 5.72084 17.4379 5.81472 17.3985L7.30722 16.779L7.41972 16.1497L5.40447 16.986C5.35789 17.0052 5.30798 17.015 5.25759 17.0149C5.20721 17.0148 5.15734 17.0047 5.11085 16.9853C5.06437 16.9659 5.02219 16.9374 4.98672 16.9016C4.95126 16.8658 4.92322 16.8234 4.90422 16.7767C4.86538 16.6824 4.86543 16.5765 4.90435 16.4823C4.94327 16.388 5.0179 16.3129 5.11197 16.2735L7.58172 15.2482L9.38022 5.25747H14.46C17.5702 5.15022 19.125 6.18897 19.125 8.37372C19.125 11.145 17.0985 13.2885 13.6612 13.2885H9.70497L9.49272 14.4555L10.608 13.9927C10.6545 13.9735 10.7045 13.9636 10.7548 13.9638C10.8052 13.9639 10.8551 13.9739 10.9016 13.9934C10.9481 14.0128 10.9902 14.0413 11.0257 14.0771C11.0612 14.1129 11.0892 14.1553 11.1082 14.202C11.1468 14.2962 11.1467 14.4019 11.1077 14.496C11.0688 14.5901 10.9943 14.665 10.9005 14.7045L9.32772 15.3577L9.21297 15.9877L11.31 15.117ZM10.8825 6.83172L10.0035 11.6505H13.917C16.326 11.6505 17.2395 10.0117 17.2395 8.82297C17.2395 7.63497 16.665 6.83172 14.748 6.83172H10.8825Z" fill="#00ACFF"/>
</svg>

<svg width="24" height="24" viewBox="0 0 24 24" fill="none"><path fill="#00acff" fill-rule="evenodd" d="M11.31 15.117a.383.383 0 0 1 .501.21.386.386 0 0 1-.208.502L9.05 16.89l-.34 1.86H6.953l.192-1.07-1.036.43a.38.38 0 0 1-.501-.209.386.386 0 0 1 .208-.503l1.492-.619.113-.63-2.016.837a.383.383 0 0 1-.5-.504.4.4 0 0 1 .208-.209l2.47-1.025 1.798-9.99h5.08q4.665-.162 4.665 3.116c0 2.771-2.026 4.915-5.464 4.915H9.705l-.212 1.167 1.115-.463a.38.38 0 0 1 .5.209.386.386 0 0 1-.208.502l-1.572.654-.115.63zm-.428-8.285-.878 4.818h3.913c2.409 0 3.323-1.638 3.323-2.827 0-1.188-.575-1.991-2.492-1.991z" clip-rule="evenodd"/></svg>
